X:1
T:66 Highway Blues
M:4/4
L:1/4
K:G
 D D2 E| G G2 A| B2 A G| B4| d d2 G| c2 c d| B4-| B3 d/2d/2| d/2d/2 d2 G|\
 c2 d2| _B/2B/2 A2 G| D D E G| B D2 B| _B- D2 A| G4-| G4|
